!!!OTL: Die Waescherin.
!!!ARE: Europa, Mitteleuropa, Deutschland
!!!TXL: @@GMH
!!!SCT: A0059
!!!YEM: Copyright 1995, estate of Helmut Schaffrath.
**kern	**text
!! Mixed meters:  4/2; 6/2
*M4/2	*
*met(c|)	*
*clefC4	*
*k[b-]	*
*g:dor	*
=1	=1
!LO:TX:a:t=dor. tr.	!
{1G	Es
2G	wolt
2G	ein
=2	=2
2.d	med-
4c	-lin
2d	wa-
2B-	-ſchen
=3	=3
0A}	gan,
=4	=4
{2r	.
2c	ir
2c	münd-
2c	-len
=5	=5
2.d	rot,
4c	ir
2B-	eug-
2A	-lein
=6	=6
1G	klar,
2r}	.
{2B-	ſie
=7	=7
2c	hort
2A	ein
2B-	reu-
2c	-ter
=8	=8
*lig	*
2d	ſin-
2B-	.
*Xlig	*
1A	-gen;
=9	=9
1r	.
2r}	.
{2B-	ſie
=10	=10
*lig	*
2.c	bat
4B-	.
2A	.
*Xlig	*
2G	den
=11	=11
2B-	reu-
2c	-ter
*lig	*
2d	al-
2B-	-ſo
=12	=12
4A/	ſehr,
4G/	.
4A/	.
4B-/	.
2c}	.
*Xlig	*
{2d	er
=13	=13
2.B-	ſolt
4A	ir
4G\	hel-
4G\	fen
2G	auß-
=14	=14
1c	-rin-
2A/}	-gen,
{2A/	ja
=15	=15
2B-	rin-
2c	.
4d	.
4e	.
4f	.
4e	.
=16	=16
*M6/2	*
2d	.
2.c	.
4B-	.
4A	.
4G	.
2B-	.
2A	.
=17	=17
0.G/ll}	-gen.
==	==
!!!GTL: Balladen und Romanzen (erzählende Volkslieder)
!!!AGN: Romanze, Ballade, Lied
!! Melodie aus: 68 Lieder. Nuernberg von Berg und Newber c.1542 No.30.
!!!ONB: ESAC (Essen Associative Code) Database: ALTDEU
!!!AMT: irregular
!!!AIN: vox
!!!EED: Helmut Schaffrath
!!!EEV: 1.0
!!!AMD: Dorian
!!!RDF**kern: l = terminal long
!!!URL-scan: https://rosdok.uni-rostock.de/mcrviewer/recordIdentifier/rosdok_ppn738218359/iview2/phys_0217.iview2?x=-425.8853427895981&y=2475.0888889109483&scale=0.4823261117445838&rotation=0&layout=singlePageLayout&logicalDiv=log_0007
!!!ENC: Anna Maria Matuszewska
!!!EEV: 2024/19/02
*-	*-
